X: 0108
T: Caledonian Country Dance - 8x24S
P: Mrs Cramb's Favourite
C: Nan Main
B: Miss Milligan's Miscellany v.1 #0108
B: Originally Ours v.1 p.170 #MMM-0108
Z: 2020 John Chambers <jc:trillian.mit.edu>
M: 4/4
L: 1/8
R: strathspey
K: A
%
e |\
"A"A2 a>e "E/A"f>c e>c | "D"(3def (3edc "E7"BcA (3GBE |\
"A"A2 a>e "E/A"f>c e>c | "E7"d<f e>c "A"A2- A>c |
"A"e<e a>e "B7"f<f b>a | "E"g>b e'>d' "A"c'>a e>d |\
"A"c<e A>c "D"d<f "B7"b>a | "E7"gaf "A"eaA "E7"B2 A>B ||
|:\
"A"c2 A>c "E/A"E>e c>e | "G"d2 B>d "E7"E>B d>f |\
"A"e2 c>e "D"f>d B>A | "E7"G>B e>d "A"cA ag/f/ |\
"A"e2 A>c "A7"A>c e>=g |
"D"(3fed (3cBA "E"GB E>G |\
"A"A2 a>e "E/A"(3fce (3ABc |[1 "D"(3def "E7"(3gfg "A"a<A A>e :|\
[2 "D"(3def "E7"(3gfg "A"a<A A2 |]
